X:1
T:Prelude No. 1 in C major
T:orchestrated for Flute, voice, and trombone
T:J.S. Bach Arr. by David Schneider 
%%score 1 2 3
L:1/8
Q:1/4=72
M:4/4
K:C
V:1 treble nm="Flute"
V:2 treble-8 nm="Voice"
V:3 bass nm="Trombone"
V:1
"^Adagio \nexpressivo\n" z!f! G/c/ e/G/c/e/ z G/c/ e/G/c/e/ | z A/d/ f/A/d/f/ z A/d/ f/A/d/f/ | %2
 z G/d/ f/G/d/f/ z G/d/ f/G/d/f/ | z G/c/ e/G/c/e/ z G/c/ e/G/c/e/ | %4
 z A/e/ a/A/e/a/ z A/e/ a/A/e/a/ | z ^F/A/ d/F/A/d/ z F/A/ d/F/A/d/ | %6
 z G/d/ g/G/d/g/ z G/d/ g/G/d/g/ | z E/G/ c/E/G/c/ z E/G/ c/E/G/c/ | %8
 z E/G/ c/E/G/c/ z E/G/ c/E/G/c/ | z D/^F/ c/D/F/c/ z D/F/ c/D/F/c/ | %10
 z D/G/ B/D/G/B/ z D/G/ B/D/G/B/ | z E/G/ ^c/E/G/c/ z E/G/ c/E/G/c/ | %12
 z D/A/ d/D/A/d/ z D/A/ d/D/A/d/ | z D/F/ B/D/F/B/ z D/F/ B/D/F/B/ | %14
 z C/G/ c/C/G/c/ z C/G/ c/C/G/c/ | z A/c/ f/A/c/f/ z A/c/ f/A/c/f/ | %16
 z A/c/ f/A/c/f/ z A/c/ f/A/c/f/ | z G/B/ f/G/B/f/ z G/B/ f/G/B/f/ | %18
 z G/c/ e/G/c/e/ z G/c/ e/G/c/e/ | z _B/c/ e/B/c/e/ z B/c/ e/B/c/e/ | %20
 z A/c/ e/A/c/e/ z A/c/ e/A/c/e/ | z A/c/ _e/A/c/e/ z A/c/ e/A/c/e/ | %22
 z B/c/ d/B/c/d/ z B/c/ d/B/c/d/ | z G/B/ d/G/B/d/ z G/B/ d/G/B/d/ | %24
 z G/c/ e/G/c/e/ z G/c/ e/G/c/e/ | z G/B/ f/G/B/f/ z G/B/ f/G/B/f/ | %26
 z A/c/ ^f/A/c/f/ z A/c/ f/A/c/f/ | z G/c/ g/G/c/g/ z G/c/ g/G/c/g/ | %28
 z G/c/ f/G/c/f/ z G/c/ f/G/c/f/ | z G/B/ f/G/B/f/ z G/B/ f/G/B/f/ | %30
 z G/_B/ e/G/B/e/ z G/B/ e/G/B/e/ | z F/A/ c/f/c/A/ c/A/F/A/ F/D/F/D/ | %32
 z G/B/ d/f/d/B/ d/B/G/B/ D/F/E/D/ | !fermata!E8 |] %34
V:2
 z/!mf! e3/2- e2 z/ e3/2- e2 | z/ d3/2- d2 z/ d3/2- d2 | z/ d3/2- d2 z/ d3/2- d2 | %3
w: ah _ ah _|ah _ ah _|ah _ oh _|
 z/ e3/2- e2 z/ e3/2- e2 | z/ e3/2- e2 z/ e3/2- e2 | z/ d3/2- d2 z/ d3/2- d2 | %6
w: oh _ ah _|dah _ dah _|dah _ dah _|
 z/ d3/2- d2 z/ d3/2- d2 | z/ c3/2- c2 z/ c3/2- c2 | z/ c3/2- c2 z/ c3/2- c2 | %9
w: dah _ dah _|ah _ ah _|oh _ oh _|
 z/ A3/2- A2 z/ A3/2- A2 | z/ B3/2- B2 z/ B3/2- B2 | z/ _B3/2- B2 z/ B3/2- B2 | %12
w: oo _ oo _|oo _ ah _|ee _ ee _|
 z/ A3/2- A2 z/ A3/2- A2 | z/ _A3/2- A2 z/ A3/2- A2 | z/ G3/2- G2 z/ G3/2- G2 | %15
w: bah _ dah _|bah _ dah _|ah _ oh _|
 z/ E3/2- E2 z/ F3/2- F2 | z/ F3/2- F2 z/ F3/2- F2 | z/ D3/2- D2 z/ D3/2- D2 | %18
w: oh _ oh _|doh _ dah _|bah _ ah _|
 z/ E3/2- E2 z/ E3/2- E2 | z/ G3/2- G2 z/ G3/2- G2 | z/ F3/2- F2 z/ F3/2- F2 | %21
w: oh _ oh _|oo _ oo _|oh _ oh _|
 z/ C3/2- C2 z/ C3/2- C2 | z/ F3/2- F2 z/ F3/2- F2 | z/ F3/2- F2 z/ F3/2- F2 | %24
w: doo _ doo _|dee _ dee _|dah _ dah _|
 z/ E3/2- E2 z/ E3/2- E2 | z/ D3/2- D2 z/ D3/2- D2 | z/ _E3/2- E2 z/ E3/2- E2 | %27
w: ah _ bah _|ah _ doh _|oh _ dah _|
 z/ E3/2- E2 z/ E3/2- E2 | z/ D3/2- D2 z/ D3/2- D2 | z/ D3/2- D2 z/ D3/2- D2 | %30
w: dee _ dah _|dee _ dah _|doh _ dah _|
 z/ C3/2- C2 z/ C3/2- C2 | z/ C3/2- C6 | z/ B,3/2- B,6 | !fermata!C8 |] %34
w: oh _ oh _|dah _|bah _|doo|
V:3
!p! C4 C4 | C4 C4 | B,4 B,4 | C4 C4 | C4 C4 | C4 C4 | B,4 B,4 | B,4 B,4 | A,4 A,4 | D,4 D,4 | %10
 G,4 G,4 | G,4 G,4 | F,4 F,4 | F,4 F,4 | E,4 E,4 | E,4 E,4 | D,4 D,4 | G,,4 G,,4 | C,4 C,4 | %19
 C,4 C,4 | F,,4 F,,4 | ^F,,4 F,,4 | _A,,4 A,,4 | G,,4 G,,4 | G,,4 G,,4 | G,,4 G,,4 | G,,4 G,,4 | %27
 G,,4 G,,4 | G,,4 G,,4 | G,,4 G,,4 | C,4 C,4 | C,8 | C,8 | C,8 |] %34

